X:2
T:Battered Hake
C:Colin Cotter
M:C
K:D
d2 dd e2 c2|d2 B2 A2 AA|B2 B2 GA B2|A2 F2 E2 D2|d2 dd e2 c2|d2 B2 A2 AA|
B2 G2 c2 A2|d2 B2 e2 c2 :|D2 FG A2 A2|B2 B2 GA B2|A2 F2 E2 D2|D2 FG A2 A2|D2 FG A2 A2|
E2 GA B2 B2|E2 GA B2 B2|D2 FG A2 A2|D2 FG A2 A2|B2 G2 C2 A2|d2 B2 e2 c2|]
